X:1
T:Scotia, 77.77.77
T:Scotia, 77.77.77
T:William Daylrymple MacLagan (1826-1910)
T:Public Domain Courtesy of the Cyber Hymnal™
C:William Daylrymple MacLagan (1826-1910)
Z:Public Domain
Z:Courtesy of the Cyber Hymnal™
%%score ( 1 2 ) ( 3 4 )
L:1/8
Q:1/4=110
M:4/4
K:Eb
V:1 treble 
V:2 treble 
V:3 bass 
V:4 bass 
V:1
 [EB]2 ([DA][EG]) [DG]2 [DF]2 | E2 [DF]2 [EG]4 | [FA]2 [FB]2 [EA]2 [EG]2 | [EG]2 [EF]2 [DF]4 | %4
 [EB]2 ([DA][EG]) [DG]2 [DF]2 | E2 [DF]2 [EG]4 | [E=A]2 [DB]2 [Cc]2 [^CB]2 | [DB]2 [E=A]2 [DB]4 | %8
 [Ee]2 (dc) [GB]2 [EG]2 | [EA]2 [EB]2 [Ec]4 | [EB]2 E2 [DA]2 [EG]2 | [DG]2 [DF]2 E4 |] %12
V:2
 x8 | E2 x6 | x8 | x8 | x8 | E2 x6 | x8 | x8 | x2 A2 x4 | x8 | x2 E2 x4 | x4 E4 |] %12
V:3
 [G,B,]2 B,2 [B,,B,]2 [B,,A,]2 | [C,G,]2 [C,B,]2 [E,B,]4 | [D,B,]2 [D,B,]2 [E,C]2 [E,B,]2 | %3
 [C,B,]2 [C,=A,]2 [B,,B,]4 | [G,B,]2 B,2 [B,,B,]2 [B,,A,]2 | [C,G,]2 [B,,B,]2 [E,B,]4 | %6
 [C,F,]2 [B,,F,]2 [E,G,]2 [=E,G,]2 | [F,B,]2 [F,C]2 [B,,B,]4 | [C,G,]2 [D,F,]2 [E,B,]2 [_D,B,]2 | %9
 [C,C]2 [B,,G,]2 [A,,A,]4 | [G,,B,]2 [G,B,]2 [F,B,]2 [E,B,]2 | [B,,B,]2 [B,,A,]2 [E,G,]4 |] %12
V:4
 x2 (F,E,) x4 | x8 | x8 | x8 | x2 (F,E,) x4 | x8 | x8 | x8 | x8 | x8 | x8 | x8 |] %12

